!!!COM: Beethoven
!!!OTL: Acht Variationen uber "Une fievre brulante" aus "Richard Coeur de Lion" von A.E.M. Gretry
!!!Variation: Variation 2 b
**function	**harm	**kern	**kern
*	*	*clefF4	*clefG2
*	*	*k[]	*k[]
*M3/4	*M3/4	*M3/4	*M3/4
*C:	*C:	*C:	*C:
4D	G:maj	4r	12dL
.	.	.	12b
.	.	.	12ddJ
=73	=73	=73	=73
2.D	G:maj/3	4B	12dL
.	.	.	12g
.	.	.	12ddJ
.	.	4r	12ddL
.	.	.	12gg
.	.	.	12dddJ
.	.	4B	12r
.	.	.	12gL
.	.	.	12ddJ
=74	=74	=74	=74
2.D	A:min7	4A	12eL
.	.	.	12g
.	.	.	12ccJ
.	.	4r	12ccL
.	.	.	12gg
.	.	.	12cccJ
.	.	4A	12r
.	.	.	12gL
.	.	.	12ccJ
=75	=75	=75	=75
2.D	D:7	4D	12f#L
.	.	.	12a
.	.	.	12ccJ
.	.	4r	12ddL
.	.	.	12ff#
.	.	.	12aaJ
.	.	4r	12cccL
.	.	.	12bb
.	.	.	12aaJ
=76	=76	=76	=76
2D	D:7	2r	12ggL
.	.	.	12ff#
.	.	.	12eeJ
.	.	.	12ddL
.	.	.	12cc#
.	.	.	12eeJ
4D	D:7/3	(4F#	12ddL
.	.	.	12ee
.	.	.	12ccJ
=77	=77	=77	=77
2D	G:maj	4G)	12bL
.	.	.	12dd
.	.	.	12ccJ
.	.	4r	12bL
.	.	.	12a
.	.	.	12gJ
4D	G:maj/3	(4BB	12f#L
.	.	.	12e
.	.	.	12dJ
=78	=78	=78	=78
2.P	C:maj	4C)	12cL
.	.	.	12e
.	.	.	12dJ
*	*	*	*clefF4
.	.	4r	12cL
.	.	.	12B
.	.	.	12AJ
.	.	(4CC	12GL
.	.	.	12F#
.	.	.	12EJ
=79	=79	=79	=79
2D	G:maj/5	4DD)	12DL
.	.	.	12G
.	.	.	12BJ
.	.	4D	12dL
.	.	.	12B
.	.	.	12GJ
4D	D:7	4D	12cL
.	.	.	12A
.	.	.	12F#J
=80	=80	=80	=80
2T	G:maj	4GG	12r
.	.	.	12GL
.	.	.	12BJ
*	*	*	*clefG2
.	.	4r	12dL
.	.	.	12g
.	.	.	12bJ
*-	*-	*-	*-
!!!EMD: Edited in humdrumR 0.7.0.3 on 2024-01-19
